icons/diarrhea.svg

<svg width="48" height="48" viewBox="0 0 48 48" fill="none" xmlns="http://www.w3.org/2000/svg">
<path fill-rule="evenodd" clip-rule="evenodd" d="M27.7098 13.847C29.669 13.2092 31.408 13.528 32.6965 14.1779C34.0065 14.8387 34.5591 16.1875 34.7679 17.3013L35.8962 23.3192L38.1642 24.5792C39.6534 25.4065 40.1797 27.2913 39.3344 28.7705C38.529 30.1799 36.7628 30.7147 35.3109 29.9887L32.2196 28.4431C31.2283 27.9474 30.4857 27.0645 30.1673 26.003L29.3978 23.438C29.1718 23.6409 28.9371 23.9012 28.6979 24.2179C28.3262 24.71 27.9991 25.2627 27.7238 25.7749L30.7071 28.7581C30.8301 28.8811 30.9189 29.0342 30.9647 29.2021L33.3343 37.8905C33.8277 39.6998 32.7086 41.5543 30.8779 41.9611C29.1482 42.3455 27.4228 41.2911 26.9849 39.5694C26.6074 38.0855 26.1026 36.0949 25.6999 34.4872C25.4987 33.6838 25.3225 32.9736 25.2003 32.4696C25.165 32.3239 25.1338 32.1937 25.1076 32.0825C21.2023 29.5503 19.6614 27.0242 19.1055 25.9124C18.6767 25.0547 18.7691 23.9827 19.1886 22.8641C19.6139 21.73 20.4291 20.3929 21.7061 18.8558C23.7221 16.0103 25.7711 14.478 27.7098 13.847ZM26.9948 31.3634C26.9791 31.2099 26.9278 31.0585 26.8395 30.9219C26.8222 30.8952 26.7893 30.8469 26.7402 30.7928C26.7088 30.7581 26.6299 30.6744 26.5026 30.6001C22.6964 28.2142 21.3206 25.8704 20.8944 25.018C20.8232 24.8757 20.7308 24.4477 21.0613 23.5663C21.3832 22.708 22.0599 21.5553 23.2682 20.1054C23.2853 20.0849 23.3015 20.0637 23.3169 20.0419C25.1748 17.4099 26.9116 16.2101 28.3288 15.7488C29.7328 15.2918 30.9263 15.525 31.7958 15.9636C32.2851 16.2104 32.6396 16.8028 32.8021 17.6698L34.0171 24.1495C34.0719 24.442 34.2542 24.6949 34.5143 24.8394L37.1929 26.3275C37.7084 26.6138 37.8905 27.2662 37.5979 27.7782C37.3192 28.266 36.7078 28.4511 36.2053 28.1998L33.114 26.6542C32.616 26.4052 32.2429 25.9616 32.0829 25.4283L30.9578 21.6779C30.8043 21.1662 30.2757 20.8655 29.7574 20.9951C28.6131 21.2812 27.7284 22.1832 27.102 23.0125C26.4522 23.8728 25.9437 24.8416 25.6055 25.518C25.413 25.9029 25.4884 26.3679 25.7928 26.6723L29.1051 29.9845L31.4047 38.4167C31.5977 39.1244 31.1601 39.8497 30.4441 40.0088C29.765 40.1597 29.0935 39.7461 28.9231 39.0764C28.5458 37.593 28.0417 35.6053 27.64 34.0013C27.4391 33.1989 27.2643 32.4948 27.144 31.9985C27.0836 31.7493 27.0382 31.5575 27.0101 31.4331C27.0036 31.404 26.9985 31.381 26.9948 31.3634Z" fill="black"/>
<path fill-rule="evenodd" clip-rule="evenodd" d="M37.5 13C38.8807 13 40 11.8807 40 10.5C40 9.11929 38.8807 8 37.5 8C36.1193 8 35 9.11929 35 10.5C35 11.8807 36.1193 13 37.5 13ZM37.5 15C39.9853 15 42 12.9853 42 10.5C42 8.01472 39.9853 6 37.5 6C35.0147 6 33 8.01472 33 10.5C33 12.9853 35.0147 15 37.5 15Z" fill="black"/>
<path d="M22 42C19 42 17.6421 42 13.5 42C9.35786 42 6 40.8807 6 39.5C6 38.1193 9.35786 37 13.5 37C21.5 37 22 40.6193 22 42Z" fill="black"/>
<path fill-rule="evenodd" clip-rule="evenodd" d="M18.1385 29.0463C18.6357 29.2868 18.8437 29.8848 18.6032 30.382L16.4002 34.9355C16.1597 35.4327 15.5616 35.6407 15.0645 35.4002C14.5673 35.1597 14.3593 34.5616 14.5998 34.0645L16.8028 29.5109C17.0434 29.0138 17.6414 28.8057 18.1385 29.0463Z" fill="black"/>
<path fill-rule="evenodd" clip-rule="evenodd" d="M21.4334 32.099C21.9311 32.3383 22.1406 32.9358 21.9013 33.4336L20.6777 35.9782C20.4384 36.4759 19.8409 36.6854 19.3431 36.446C18.8454 36.2067 18.6359 35.6092 18.8753 35.1115L20.0988 32.5669C20.3382 32.0691 20.9357 31.8597 21.4334 32.099Z" fill="black"/>
</svg>

<svg
  xmlns="http://www.w3.org/2000/svg"
  width="24"
  height="24"
  viewBox="0 0 24 24"
  fill="none"
  stroke="currentColor"
  stroke-width="2"
  stroke-linecap="round"
  stroke-linejoin="round"
>
  <path
    fill-rule="evenodd"
    d="M27.71 13.847c1.959-.638 3.698-.319 4.986.33 1.31.662 1.863 2.01 2.072 3.124l1.128 6.018 2.268 1.26a3.059 3.059 0 0 1-2.853 5.41l-3.091-1.546a4.02 4.02 0 0 1-2.053-2.44l-.77-2.565q-.339.305-.7.78a12 12 0 0 0-.973 1.557l2.983 2.983a1 1 0 0 1 .258.444l2.37 8.689a3.285 3.285 0 1 1-6.35 1.678c-.378-1.483-.882-3.474-1.285-5.082a301 301 0 0 1-.592-2.404c-3.906-2.533-5.447-5.059-6.003-6.17-.428-.858-.336-1.93.084-3.049.425-1.134 1.24-2.471 2.517-4.008 2.016-2.846 4.065-4.378 6.004-5.009m-.715 17.516a1 1 0 0 0-.492-.763c-3.807-2.386-5.182-4.73-5.609-5.582-.07-.142-.163-.57.167-1.452.322-.858.999-2.01 2.207-3.46l.049-.064c1.858-2.632 3.595-3.832 5.012-4.293 1.404-.457 2.597-.224 3.467.215.49.246.844.839 1.006 1.706l1.215 6.48a1 1 0 0 0 .497.69l2.679 1.488a1.059 1.059 0 0 1-.988 1.872l-3.091-1.546a2.02 2.02 0 0 1-1.031-1.226l-1.125-3.75a1 1 0 0 0-1.2-.683c-1.145.286-2.03 1.188-2.656 2.017-.65.86-1.158 1.83-1.497 2.506a1 1 0 0 0 .188 1.154l3.312 3.313 2.3 8.432a1.285 1.285 0 1 1-2.482.66c-.377-1.484-.881-3.472-1.283-5.076-.2-.802-.376-1.506-.496-2.002a41 41 0 0 1-.15-.636"
    clip-rule="evenodd"
  />
  <path
    fill-rule="evenodd"
    d="M37.5 13a2.5 2.5 0 1 0 0-5 2.5 2.5 0 0 0 0 5m0 2a4.5 4.5 0 1 0 0-9 4.5 4.5 0 0 0 0 9"
    clip-rule="evenodd"
  />
  <path d="M22 42h-8.5C9.358 42 6 40.88 6 39.5S9.358 37 13.5 37c8 0 8.5 3.62 8.5 5" />
  <path
    fill-rule="evenodd"
    d="M18.139 29.046a1 1 0 0 1 .464 1.336L16.4 34.935a1 1 0 0 1-1.8-.87l2.203-4.554a1 1 0 0 1 1.335-.465"
    clip-rule="evenodd"
  />
  <path
    fill-rule="evenodd"
    d="M21.433 32.099a1 1 0 0 1 .468 1.335l-1.223 2.544a1 1 0 1 1-1.803-.867l1.224-2.544a1 1 0 0 1 1.334-.468"
    clip-rule="evenodd"
  />
</svg>
